frontend/public/svg/gender symbols/non-binary-transgender.svg

<svg width="78" height="141" viewBox="0 0 78 141" fill="none" xmlns="http://www.w3.org/2000/svg">
<g clip-path="url(#clip0)">
<path d="M37.3248 111.169V94.1748C34.8963 93.9011 32.2164 93.7711 29.6048 93.2769C14.3121 90.389 4.74411 80.2952 1.57203 64.3699C-0.627356 53.3316 1.36 43.1937 7.19351 33.7188C9.53992 29.9081 12.993 27.2021 16.7492 24.8688C17.5939 24.3438 18.4557 23.8515 19.6457 23.1459C18.0777 22.4509 16.8026 21.9303 15.566 21.3298C9.88541 18.5732 5.06435 14.8471 2.07999 9.12184C1.53784 8.14541 1.13488 7.09829 0.882359 6.01034C0.554194 4.3695 0.846661 2.785 2.58858 2.03546C4.25634 1.31349 5.66701 1.93841 6.75061 3.30359C7.22777 3.92794 7.6641 4.58226 8.05718 5.26267C10.5339 9.32695 14.2518 12.4873 18.6618 14.2774C24.343 16.7381 30.4762 17.9826 36.6672 17.9311C41.9835 17.8872 47.1684 17.4633 52.1684 15.4221C56.4978 13.7487 60.1044 10.6117 62.3615 6.5558C63.2384 4.99711 64.2854 3.54041 65.4836 2.21269C66.6537 0.921668 68.1613 0.183835 70.0168 1.00032C71.9609 1.85684 72.1309 3.50097 71.8414 5.23896C71.6439 6.67346 71.2632 8.07695 70.7086 9.41477C68.8131 13.6153 65.7264 16.8373 61.9977 19.4777C61.0001 20.184 59.9856 20.8676 58.9276 21.5961C76.1627 32.1855 82.2129 56.7916 72.8089 76.4261C68.3379 85.7612 60.5288 90.7211 50.6208 92.7361C48.657 93.1358 46.6775 93.458 44.3856 93.8774C44.6146 99.5141 44.8391 105.058 45.0839 111.091C48.1424 110.799 50.8852 110.512 53.6326 110.285C54.9605 110.12 56.3012 110.08 57.6364 110.169C58.4938 110.197 59.3101 110.544 59.9255 111.142C60.541 111.74 60.9116 112.545 60.9648 113.402C61.0966 114.251 60.9165 115.119 60.4581 115.846C59.9998 116.574 59.2937 117.11 58.4706 117.357C57.0859 117.789 55.6437 118.008 54.1931 118.008C51.4109 118.104 48.623 118.036 45.6124 118.036C45.8211 122.297 46.0313 126.193 46.1953 130.09C46.2708 131.884 46.3391 133.685 46.2498 135.472C46.1778 136.473 45.9453 137.456 45.5617 138.383C45.3362 139.087 44.8917 139.701 44.2926 140.135C43.6936 140.568 42.9718 140.8 42.2323 140.794C41.4916 140.825 40.7609 140.614 40.1501 140.194C39.5394 139.774 39.0816 139.167 38.8455 138.464C38.3579 137.215 38.0598 135.901 37.9613 134.564C37.6745 130.197 37.5287 125.819 37.32 121.447C37.2734 120.462 37.1889 119.478 37.0931 118.044C34.1652 118.044 31.3908 118.084 28.6184 118.025C27.3831 118.027 26.1518 117.885 24.949 117.603C24.1635 117.456 23.4628 117.017 22.9879 116.375C22.5131 115.732 22.2993 114.933 22.3893 114.139C22.5462 112.508 23.5921 111.585 25.6937 111.526C28.8362 111.438 31.9835 111.496 35.128 111.465C35.8648 111.404 36.5981 111.305 37.3248 111.169ZM38.4596 87.5654C42.2565 86.9045 46.8343 86.3643 51.2778 85.2755C58.8309 83.4239 63.7383 78.5152 66.3485 71.2239C68.5472 64.9526 69.2121 58.2461 68.2867 51.6653C66.6458 38.6862 58.7084 29.6023 46.1159 27.0288C37.2855 25.2246 28.5647 25.3428 20.5061 30.3762C16.3089 33.0016 12.9655 36.2459 10.713 40.7273C5.62705 50.8474 6.55831 60.9672 10.6342 71.0126C14.0432 79.4137 20.3927 84.5647 29.309 86.3637C32.0473 86.9144 34.8576 87.1047 38.4603 87.5654H38.4596Z" fill="black"/>
</g>
<defs>
<clipPath id="clip0">
<rect width="77.4479" height="140.456" fill="white" transform="translate(0.176758 0.40918)"/>
</clipPath>
</defs>
</svg>

<svg xmlns="http://www.w3.org/2000/svg" width="78" height="141" fill="none" viewBox="0 0 78 141"><g clip-path="url(#a)"><path fill="#000" d="M37.325 111.169V94.175c-2.429-.274-5.109-.404-7.72-.898C14.312 90.389 4.745 80.295 1.572 64.37c-2.2-11.038-.212-21.176 5.622-30.651 2.346-3.81 5.799-6.517 9.555-8.85.845-.525 1.707-1.017 2.897-1.723-1.568-.695-2.843-1.216-4.08-1.816C9.886 18.573 5.064 14.847 2.08 9.122A12 12 0 0 1 .882 6.01C.554 4.37.847 2.785 2.59 2.035c1.667-.722 3.078-.097 4.162 1.269a18 18 0 0 1 1.306 1.959 22.2 22.2 0 0 0 10.605 9.014 44.4 44.4 0 0 0 18.005 3.654c5.316-.044 10.501-.468 15.501-2.509a19.86 19.86 0 0 0 10.194-8.866 24.2 24.2 0 0 1 3.122-4.343C66.654.922 68.16.183 70.017 1c1.944.857 2.114 2.501 1.824 4.239a17 17 0 0 1-1.132 4.176c-1.896 4.2-4.983 7.422-8.711 10.063-.998.706-2.012 1.39-3.07 2.118 17.235 10.59 23.285 35.196 13.88 54.83-4.47 9.335-12.28 14.295-22.187 16.31-1.964.4-3.943.722-6.235 1.141l.698 17.214c3.058-.292 5.801-.579 8.549-.806a21 21 0 0 1 4.003-.116 3.446 3.446 0 0 1 3.329 3.233 3.56 3.56 0 0 1-2.494 3.955 14.4 14.4 0 0 1-4.278.651c-2.782.096-5.57.028-8.58.028.208 4.261.418 8.157.582 12.054.076 1.794.144 3.595.055 5.382a9.4 9.4 0 0 1-.688 2.911 3.47 3.47 0 0 1-3.33 2.411 3.42 3.42 0 0 1-3.386-2.33 13.4 13.4 0 0 1-.885-3.9c-.286-4.367-.432-8.745-.641-13.117-.047-.985-.131-1.969-.227-3.403-2.928 0-5.702.04-8.475-.019a16 16 0 0 1-3.669-.422 3.163 3.163 0 0 1-2.56-3.464c.157-1.631 1.203-2.554 3.305-2.613 3.142-.088 6.29-.03 9.434-.061q1.106-.092 2.197-.296m1.135-23.604c3.797-.66 8.374-1.2 12.818-2.29 7.553-1.851 12.46-6.76 15.07-14.051a41.6 41.6 0 0 0 1.939-19.559c-1.641-12.979-9.579-22.063-22.171-24.636-8.83-1.804-17.551-1.686-25.61 3.347-4.197 2.626-7.54 5.87-9.793 10.351-5.086 10.12-4.155 20.24-.079 30.286 3.41 8.4 9.759 13.552 18.675 15.35 2.738.551 5.549.742 9.151 1.202"/></g><defs><clipPath id="a"><path fill="#fff" d="M.177.41h77.448v140.455H.177z"/></clipPath></defs></svg>
